X: 16071
T: Green Fields Of Rossbeigh, The
R: reel
M: 4/4
K: Edorian
dc|:BE ~E2 BAFA|FABd fdec|BE ~E2 BAFA|BFAF E2 FA:|
|:Bdef gfge|dB ~B2 dBA=c|Bdef gfeB|dBAF E2 ef|
gfgb agfe|~f2 fe fedB|ABde fgfe|1 dBAF E2 FA:|2 dBAF E4||

